src/shared/assets/images/trends.svg

<svg width="28" height="18" viewBox="0 0 28 18" fill="none" xmlns="http://www.w3.org/2000/svg">
<path d="M26.7742 1.70313V9.20313C26.7742 9.38961 26.7001 9.56845 26.5682 9.70031C26.4364 9.83217 26.2575 9.90625 26.0711 9.90625C25.8846 9.90625 25.7057 9.83217 25.5739 9.70031C25.442 9.56845 25.3679 9.38961 25.3679 9.20313V3.40234L15.3132 13.4453C15.2498 13.512 15.1734 13.565 15.0888 13.6013C15.0042 13.6376 14.9131 13.6563 14.8211 13.6563C14.729 13.6563 14.6379 13.6376 14.5533 13.6013C14.4687 13.565 14.3924 13.512 14.3289 13.4453L10.1336 9.26172L2.18825 17.1953C2.12361 17.2599 2.04688 17.3112 1.96243 17.3462C1.87798 17.3812 1.78747 17.3992 1.69606 17.3992C1.60465 17.3992 1.51414 17.3812 1.42969 17.3462C1.34524 17.3112 1.26851 17.2599 1.20387 17.1953C1.13924 17.1307 1.08796 17.0539 1.05298 16.9695C1.018 16.885 1 16.7945 1 16.7031C1 16.6117 1.018 16.5212 1.05298 16.4368C1.08796 16.3523 1.13924 16.2756 1.20387 16.2109L9.64137 7.77344C9.70485 7.70678 9.78121 7.65372 9.86582 7.61746C9.95042 7.5812 10.0415 7.5625 10.1336 7.5625C10.2256 7.5625 10.3167 7.5812 10.4013 7.61746C10.4859 7.65372 10.5623 7.70678 10.6257 7.77344L14.8211 11.957L24.3718 2.40625H18.5711C18.3846 2.40625 18.2057 2.33217 18.0739 2.20031C17.942 2.06845 17.8679 1.88961 17.8679 1.70313C17.8679 1.51664 17.942 1.3378 18.0739 1.20594C18.2057 1.07408 18.3846 1 18.5711 1H26.0711C26.2575 1 26.4364 1.07408 26.5682 1.20594C26.7001 1.3378 26.7742 1.51664 26.7742 1.70313Z" fill="white" stroke="white"/>
</svg>

<svg xmlns="http://www.w3.org/2000/svg" width="28" height="18" fill="none"><path fill="#fff" stroke="#fff" d="M26.774 1.703v7.5a.703.703 0 0 1-1.406 0v-5.8L15.313 13.444a.68.68 0 0 1-.984 0l-4.195-4.183-7.946 7.933a.697.697 0 0 1-.984-.984L9.64 7.773a.68.68 0 0 1 .985 0l4.195 4.184 9.55-9.55h-5.8a.703.703 0 1 1 0-1.407h7.5a.703.703 0 0 1 .703.703Z"/></svg>
